src/assets/socialmedia/youtube.svg

<svg width="21" height="20" viewBox="0 0 21 20" fill="none" xmlns="http://www.w3.org/2000/svg">
<path d="M19.6669 8.09165C19.7081 6.89886 19.4472 5.715 18.9085 4.64999C18.543 4.21299 18.0358 3.91808 17.4752 3.81665C15.1565 3.60626 12.8281 3.52002 10.5002 3.55832C8.18072 3.51829 5.86078 3.60174 3.55019 3.80832C3.09337 3.89142 2.67062 4.10569 2.33352 4.42499C1.58352 5.11665 1.50019 6.29999 1.41685 7.29999C1.29595 9.09796 1.29595 10.902 1.41685 12.7C1.44096 13.2628 1.52476 13.8215 1.66685 14.3667C1.76733 14.7875 1.97062 15.1769 2.25852 15.5C2.59791 15.8362 3.03051 16.0627 3.50019 16.15C5.29678 16.3718 7.10703 16.4637 8.91685 16.425C11.8335 16.4667 14.3919 16.425 17.4169 16.1917C17.8981 16.1097 18.3428 15.8829 18.6919 15.5417C18.9252 15.3082 19.0994 15.0226 19.2002 14.7083C19.4982 13.7938 19.6446 12.8367 19.6335 11.875C19.6669 11.4083 19.6669 8.59165 19.6669 8.09165ZM8.61685 12.375V7.21665L13.5502 9.80832C12.1669 10.575 10.3419 11.4417 8.61685 12.375Z" fill="white"/>
</svg>

<svg xmlns="http://www.w3.org/2000/svg" width="21" height="20" fill="none" xmlns:v="https://vecta.io/nano"><path d="M19.667 8.092c.041-1.193-.22-2.377-.758-3.442-.366-.437-.873-.732-1.433-.833a65.3 65.3 0 0 0-6.975-.258c-2.319-.04-4.639.043-6.95.25a2.39 2.39 0 0 0-1.217.617C1.584 5.117 1.5 6.3 1.417 7.3c-.121 1.798-.121 3.602 0 5.4a7.96 7.96 0 0 0 .25 1.667c.1.421.304.81.592 1.133.339.336.772.563 1.242.65a37.64 37.64 0 0 0 5.417.275l8.5-.233a2.4 2.4 0 0 0 1.275-.65c.233-.234.407-.519.508-.833.298-.915.444-1.872.433-2.833.033-.467.033-3.283.033-3.783zm-11.05 4.283V7.217l4.933 2.592-4.933 2.567z" fill="#fff"/></svg>
